server/website/public/icons/base/fitness.svg

<svg width="48" height="48" viewBox="0 0 48 48" fill="none" xmlns="http://www.w3.org/2000/svg">
<g clip-path="url(#clip0_1387_17162)">
<path d="M30.5 9C32.9853 9 35 6.98531 35 4.5C35 2.01469 32.9853 0 30.5 0C28.0147 0 26 2.01469 26 4.5C26 6.98531 28.0147 9 30.5 9ZM15.6584 29.7628L14.2709 32.9991H8C6.34344 32.9991 5 34.3425 5 35.9991C5 37.6556 6.34344 38.9991 8 38.9991H15.2609C17.0656 38.9991 18.6903 37.9266 19.3962 36.2719L20.2203 34.3481L19.22 33.7575C17.5962 32.7984 16.4019 31.3791 15.6584 29.7628ZM41 20.9991H36.8722L34.4291 16.0069C33.2572 13.6116 31.1056 11.8603 28.6372 11.2312L21.9734 9.24937C19.3203 8.61187 16.5575 9.19781 14.3947 10.8562L10.6756 13.7072C9.36031 14.715 9.11094 16.5975 10.1206 17.9128C11.1303 19.2281 13.0119 19.4747 14.3263 18.4678L18.0472 15.6169C18.7662 15.0647 19.6822 14.8669 20.4163 15.0412L21.7944 15.4509L18.2825 23.6437C17.0994 26.4075 18.1597 29.6447 20.7481 31.1728L28.715 35.8762L26.1397 44.1009C25.6447 45.6816 26.525 47.3644 28.1056 47.8594C28.4047 47.9531 28.7066 47.9981 29.0038 47.9981C30.2797 47.9981 31.4628 47.1759 31.865 45.8934L34.8313 36.4191C35.3853 34.4719 34.5603 32.3803 32.8025 31.32L27.0613 27.9319L29.9966 20.5931L31.8969 24.4772C32.6469 26.0091 34.2331 26.9981 35.9384 26.9981H41C42.6566 26.9981 44 25.6547 44 23.9981C44 22.3416 42.6566 20.9991 41 20.9991Z" fill="black"/>
</g>
<defs>
<clipPath id="clip0_1387_17162">
<rect width="39" height="48" fill="white" transform="translate(5)"/>
</clipPath>
</defs>
</svg>

<svg width="48" height="48" fill="none" xmlns="http://www.w3.org/2000/svg"><g clip-path="url(#prefix__clip0_1387_17162)"><path d="M30.5 9a4.5 4.5 0 100-9 4.5 4.5 0 000 9zM15.658 29.763l-1.387 3.236H8a3 3 0 000 6h7.26a4.49 4.49 0 004.136-2.727l.824-1.924-1-.59c-1.624-.96-2.818-2.379-3.562-3.995zM41 20.999h-4.128l-2.443-4.992c-1.172-2.395-3.323-4.147-5.792-4.776L21.973 9.25a8.962 8.962 0 00-7.578 1.607l-3.72 2.851a3 3 0 003.65 4.76l3.722-2.85c.72-.552 1.635-.75 2.37-.576l1.377.41-3.512 8.193a6.016 6.016 0 002.466 7.529l7.967 4.703-2.575 8.225a3 3 0 105.725 1.792l2.966-9.474a4.519 4.519 0 00-2.029-5.099l-5.74-3.388 2.935-7.339 1.9 3.884a4.528 4.528 0 004.041 2.521H41A3 3 0 0041 21z" fill="#000"/></g><defs><clipPath id="prefix__clip0_1387_17162"><path fill="#fff" transform="translate(5)" d="M0 0h39v48H0z"/></clipPath></defs></svg>
